X:1
T:High Reel, The
L:1/8
M:2/2
I:linebreak $
K:D
V:1 treble 
V:1
 a2 ^ga eA(3AAA | (3cBA eA fAeA | a2 ^ga eA(3AAA | Bcdc BG (3GGG | a2 ^ga eA (3AAA |$ cdef g2 fg | %6
 af (3gfe fded | Bcdc BG (3GGG :: (3cBA eA fAeA | (3cBA ea f2 ed |$ (3cBA eA fAeA | %11
 BG (3GGG DG (3GGG | (3cBA eA fAeA | cdef g2 fg | af (3gfe fded |$ Bcdc BG (3GGG :| %16
